images/clients/logo-5.svg

<svg width="59" height="47" viewBox="0 0 59 47" fill="none" xmlns="http://www.w3.org/2000/svg">
<path d="M4.48764 39.2778C4.71752 39.5634 4.83998 39.9212 4.83356 40.2884C4.84529 40.528 4.8032 40.7671 4.71042 40.988C4.61763 41.209 4.47652 41.4062 4.29754 41.565C3.85095 41.9037 3.29769 42.0692 2.73933 42.0313H0V35.6263H2.68323C3.21289 35.5909 3.73833 35.7413 4.16977 36.0518C4.34305 36.1974 4.48026 36.3815 4.57058 36.5895C4.6609 36.7974 4.70185 37.0236 4.69021 37.2502C4.70595 37.6035 4.59543 37.9509 4.37857 38.2296C4.17037 38.4841 3.88265 38.6605 3.56206 38.7302C3.92548 38.7968 4.25352 38.9909 4.48764 39.2778ZM1.27461 38.3109H2.42146C2.6821 38.3303 2.94097 38.2548 3.1507 38.0982C3.23681 38.0198 3.3038 37.9226 3.34649 37.8141C3.38918 37.7056 3.40643 37.5887 3.39689 37.4724C3.40499 37.3565 3.38738 37.2403 3.34535 37.1321C3.30332 37.0239 3.2379 36.9264 3.15381 36.8466C2.93781 36.6856 2.6709 36.6088 2.40276 36.6307H1.27461V38.3109ZM3.26289 40.7672C3.35493 40.6869 3.42729 40.5865 3.47432 40.4736C3.52134 40.3607 3.54178 40.2385 3.53402 40.1163C3.54104 39.9928 3.51967 39.8693 3.47158 39.7554C3.42349 39.6414 3.34995 39.5401 3.25666 39.4593C3.03228 39.2922 2.75632 39.2102 2.47755 39.2277H1.27461V40.9893H2.49313C2.7674 41.0052 3.03889 40.9269 3.26289 40.7672Z" fill="#AFB1B8"/>
<path d="M9.97245 42.0313L8.47968 39.5281H7.91873V42.0313H6.63477V35.6263H9.06557C9.67829 35.5834 10.284 35.7783 10.7578 36.1708C11.0976 36.5184 11.3025 36.9764 11.3357 37.4624C11.3688 37.9483 11.228 38.4301 10.9385 38.821C10.6386 39.1659 10.229 39.3959 9.77923 39.4718L11.3686 42.0313H9.97245ZM7.91873 38.6552H8.96896C9.6982 38.6552 10.0628 38.3318 10.0628 37.6852C10.0703 37.5531 10.0503 37.421 10.0041 37.2971C9.958 37.1732 9.88672 37.0603 9.79481 36.9655C9.56436 36.7731 9.26757 36.6798 8.96896 36.7058H7.90626L7.91873 38.6552Z" fill="#AFB1B8"/>
<path d="M16.9908 40.742H14.4322L13.9803 42.0311H12.634L14.9838 35.6981H16.4392L18.7796 42.0311H17.4333L16.9908 40.742ZM16.648 39.772L15.7131 37.0686L14.7781 39.772H16.648Z" fill="#AFB1B8"/>
<path d="M25.7759 42.0312H24.5013L21.6436 37.6757V42.0312H20.3721V35.6262H21.6436L24.5013 40.0068V35.6262H25.7759V42.0312Z" fill="#AFB1B8"/>
<path d="M33.0497 40.4981C32.7862 40.9817 32.3846 41.375 31.8966 41.6276C31.3418 41.909 30.7261 42.0477 30.1047 42.0313H27.8359V35.6263H30.1047C30.725 35.61 31.3399 35.7453 31.8966 36.0206C32.3845 36.2674 32.7865 36.6569 33.0497 37.1376C33.3121 37.6585 33.4488 38.2341 33.4488 38.8178C33.4488 39.4016 33.3121 39.9772 33.0497 40.4981ZM31.5912 40.3448C31.955 39.9193 32.155 39.377 32.155 38.8163C32.155 38.2555 31.955 37.7133 31.5912 37.2878C31.1515 36.9024 30.5781 36.7067 29.9956 36.7433H29.1106V40.8892H29.9956C30.5781 40.9258 31.1515 40.7302 31.5912 40.3448Z" fill="#AFB1B8"/>
<path d="M17.7886 0C17.7886 0 34.2401 6.236 33.8911 15.2599V30.5229C33.8911 30.5229 17.452 24.2838 17.7948 15.2599L17.7886 0Z" fill="#AFB1B8"/>
<path d="M48.5476 26.9496C51.6546 24.8028 55.2485 23.4731 59.0001 23.0822V18.3043C54.6774 19.977 51.0104 23.0101 48.5476 26.9496Z" fill="#AFB1B8"/>
<path d="M46.6809 28.389C49.2239 23.2478 53.6326 19.2805 59.0001 17.3032V3.53577C59.0001 3.53577 35.5708 12.4189 36.0663 25.2695V47C36.0663 47 37.1103 46.6027 38.7527 45.858C38.7527 45.1633 38.7527 44.4625 38.8275 43.7584C39.3124 37.7926 42.1372 32.2643 46.6809 28.389Z" fill="#AFB1B8"/>
<path d="M44.4525 36.4617C44.5756 34.9546 44.8502 33.4639 45.2721 32.0123C42.4429 35.3589 40.7296 39.5117 40.3731 43.8867C40.3388 44.2997 40.3201 44.7127 40.3108 45.1383C41.6415 44.4968 43.1904 43.6958 44.8171 42.754C44.402 40.6842 44.2792 38.5659 44.4525 36.4617Z" fill="#AFB1B8"/>
<path d="M45.3843 36.54C45.2284 38.4437 45.3258 40.3599 45.6741 42.2378C52.0753 38.3923 59.268 32.4504 58.9906 25.2695V24.6437C54.4172 25.1575 50.1384 27.1648 46.8116 30.3571C46.0327 32.3355 45.5517 34.4193 45.3843 36.54Z" fill="#AFB1B8"/>
</svg>

<svg width="59" height="47" fill="none" xmlns="http://www.w3.org/2000/svg"><path fill="#E5E5E5" d="M0 0h59v47H0z"/><g clip-path="url(#clip0)"><path fill="#fff" d="M-1078-2509H522V415h-1600z"/><rect x="-57.5" y="-21.5" width="174" height="89" rx="3.5" stroke="#AFB1B8"/><path d="M4.488 39.278c.23.285.352.643.346 1.01a1.605 1.605 0 01-.536 1.277c-.447.339-1 .504-1.559.466H0v-6.405h2.683a2.284 2.284 0 011.487.426 1.464 1.464 0 01.52 1.198c.016.353-.095.7-.311.98-.209.254-.496.43-.817.5.363.067.692.26.926.548zm-3.213-.967H2.42c.261.02.52-.056.73-.213a.76.76 0 00.246-.626.789.789 0 00-.243-.626 1.105 1.105 0 00-.751-.215H1.275v1.68zm1.988 2.456a.794.794 0 00.271-.65.81.81 0 00-.277-.658 1.18 1.18 0 00-.78-.231H1.276v1.761h1.218c.274.016.546-.062.77-.222zM9.972 42.031L8.48 39.528h-.561v2.503H6.635v-6.405h2.43a2.39 2.39 0 011.693.545 2.048 2.048 0 01.18 2.65c-.3.345-.709.575-1.159.65l1.59 2.56H9.972zM7.92 38.655h1.05c.73 0 1.094-.323 1.094-.97a.955.955 0 00-.268-.72 1.134 1.134 0 00-.826-.26H7.906l.013 1.95zM16.99 40.742h-2.558l-.452 1.29h-1.346l2.35-6.334h1.455l2.34 6.333h-1.346l-.442-1.289zm-.342-.97l-.935-2.703-.935 2.703h1.87zM25.776 42.031H24.5l-2.857-4.355v4.355h-1.272v-6.405h1.272l2.857 4.38v-4.38h1.275v6.405zM33.05 40.498a2.757 2.757 0 01-1.153 1.13c-.555.281-1.17.42-1.792.403h-2.27v-6.405h2.27a3.816 3.816 0 011.792.395c.488.246.89.636 1.153 1.117a3.735 3.735 0 010 3.36zm-1.459-.153a2.352 2.352 0 000-3.057 2.21 2.21 0 00-1.595-.545h-.885v4.146h.885a2.21 2.21 0 001.595-.544zM17.789 0S34.24 6.236 33.89 15.26v15.263s-16.439-6.24-16.096-15.263L17.789 0zM48.548 26.95A22.485 22.485 0 0159 23.082v-4.778a21.467 21.467 0 00-10.452 8.646z" fill="#AFB1B8"/><path d="M46.68 28.389A22.382 22.382 0 0159 17.303V3.536s-23.43 8.883-22.934 21.733V47s1.044-.397 2.687-1.141c0-.695 0-1.396.075-2.1a22.605 22.605 0 017.853-15.37z" fill="#AFB1B8"/><path d="M44.453 36.462c.123-1.508.397-2.998.82-4.45a21.04 21.04 0 00-4.962 13.126 68.003 68.003 0 004.506-2.384 22.577 22.577 0 01-.364-6.292zM45.384 36.54a21.586 21.586 0 00.29 5.698c6.401-3.846 13.594-9.788 13.317-16.969v-.625a20.971 20.971 0 00-12.18 5.713 21.496 21.496 0 00-1.427 6.183z" fill="#AFB1B8"/></g><defs><clipPath id="clip0"><path fill="#fff" d="M-1078-2509H522V415h-1600z"/></clipPath></defs></svg>
